svg/Meteorology/thunderstorms/rain/thunderstorm_mild.svg

<?xml version="1.0" encoding="UTF-8" standalone="no"?>
<!-- Created with Inkscape (http://www.inkscape.org/) -->
<svg
   xmlns:dc="http://purl.org/dc/elements/1.1/"
   xmlns:cc="http://web.resource.org/cc/"
   xmlns:rdf="http://www.w3.org/1999/02/22-rdf-syntax-ns#"
   xmlns:svg="http://www.w3.org/2000/svg"
   xmlns="http://www.w3.org/2000/svg"
   xmlns:sodipodi="http://sodipodi.sourceforge.net/DTD/sodipodi-0.dtd"
   xmlns:inkscape="http://www.inkscape.org/namespaces/inkscape"
   width="744.09448819"
   height="1052.3622047"
   id="svg2"
   sodipodi:version="0.32"
   inkscape:version="0.44.1"
   sodipodi:docbase="C:\Documents and Settings\pc\Desktop\meteo\meteo svg"
   sodipodi:docname="thunderstorm_mild.svg">
  <defs
     id="defs4" />
  <sodipodi:namedview
     id="base"
     pagecolor="#ffffff"
     bordercolor="#666666"
     borderopacity="1.0"
     inkscape:pageopacity="0.0"
     inkscape:pageshadow="2"
     inkscape:zoom="1.4"
     inkscape:cx="293.00784"
     inkscape:cy="620.67075"
     inkscape:document-units="px"
     inkscape:current-layer="layer1"
     showgrid="true"
     inkscape:window-width="1280"
     inkscape:window-height="744"
     inkscape:window-x="-4"
     inkscape:window-y="-4" />
  <metadata
     id="metadata7">
    <rdf:RDF>
      <cc:Work
         rdf:about="">
        <dc:format>image/svg+xml</dc:format>
        <dc:type
           rdf:resource="http://purl.org/dc/dcmitype/StillImage" />
      </cc:Work>
    </rdf:RDF>
  </metadata>
  <g
     inkscape:label="Livello 1"
     inkscape:groupmode="layer"
     id="layer1">
    <g
       id="g4602">
      <path
         id="path1935"
         d="M 252.5,463.07647 L 252.85714,345.57647 L 316.07143,345.93361"
         style="fill:none;fill-rule:evenodd;stroke:black;stroke-width:4.5;stroke-linecap:butt;stroke-linejoin:miter;stroke-opacity:1;stroke-miterlimit:4;stroke-dasharray:none" />
      <path
         sodipodi:nodetypes="cccc"
         id="path2824"
         d="M 315,347.36218 L 277.14286,403.79075 L 295.35715,433.07647 L 313.57143,462.36218"
         style="fill:none;fill-rule:evenodd;stroke:black;stroke-width:2.7;stroke-linecap:butt;stroke-linejoin:miter;stroke-opacity:1;stroke-miterlimit:4;stroke-dasharray:none" />
      <path
         id="path4598"
         d="M 314.55627,457.6277 L 308.65581,461.70036 L 314.17281,463.09516 L 314.55627,457.6277 z "
         style="fill:black;fill-opacity:1;fill-rule:evenodd;stroke:black;stroke-width:0.78356653px;stroke-linecap:butt;stroke-linejoin:miter;stroke-opacity:1" />
      <path
         transform="matrix(0.638057,3.255592e-2,-3.452844e-2,0.601606,232.063,100.3683)"
         d="M 111.62185 373.03461 A 18.182745 19.697975 0 1 1  75.256365,373.03461 A 18.182745 19.697975 0 1 1  111.62185 373.03461 z"
         sodipodi:ry="19.697975"
         sodipodi:rx="18.182745"
         sodipodi:cy="373.03461"
         sodipodi:cx="93.43911"
         id="path4600"
         style="opacity:0.98543689;fill:black;fill-opacity:1;stroke:black;stroke-width:0;stroke-linecap:square;stroke-linejoin:miter;stroke-miterlimit:4;stroke-dasharray:none;stroke-opacity:1"
         sodipodi:type="arc" />
    </g>
  </g>
</svg>

<svg xmlns="http://www.w3.org/2000/svg" viewBox="0 0 744.09 1052.36"><g fill-rule="evenodd" stroke="#000"><g fill="none"><path d="m252.5 463.08l.357-117.5 63.21.357" stroke-width="4.5"/><path d="m315 347.36l-37.857 56.43 18.214 29.29 18.214 29.29" stroke-width="2.7"/></g><path d="m314.56 457.63l-5.9 4.073 5.517 1.395.383-5.467z" stroke-width=".784"/></g><path transform="matrix(.63806.03256-.03453.60161 232.06 100.37)" d="M111.62185 373.03461A18.18275 19.697975 0 1 1 75.25637 373.03461 18.18275 19.697975 0 1 1 111.62185 373.03461" opacity=".985"/></svg>
